svgs/regular/tower-control.svg

<svg xmlns="http://www.w3.org/2000/svg" viewBox="0 0 448 512"><!--! Font Awesome Pro 6.6.0 by @fontawesome - https://fontawesome.com License - https://fontawesome.com/license (Commercial License) Copyright 2024 Fonticons, Inc. --><path d="M160 24c0-13.3 10.7-24 24-24l40 0 40 0c13.3 0 24 10.7 24 24s-10.7 24-24 24l-16 0 0 48 40 0c17.7 0 32 14.3 32 32l93.2 0c21.4 0 36.8 20.7 30.6 41.2L402.7 306.5c7.9 3.9 13.3 12.1 13.3 21.5c0 13.3-10.7 24-24 24l-24 0 0 136c0 13.3-10.7 24-24 24s-24-10.7-24-24l0-136-192 0 0 136c0 13.3-10.7 24-24 24s-24-10.7-24-24l0-136-24 0c-13.3 0-24-10.7-24-24c0-9.4 5.4-17.6 13.3-21.5L4.1 169.2C-2.1 148.7 13.3 128 34.8 128l93.2 0c0-17.7 14.3-32 32-32l40 0 0-48-16 0c-13.3 0-24-10.7-24-24zM94.7 304l33.3 0 0-128-71.7 0L94.7 304zm81.3 0l96 0 0-128-96 0 0 128zM320 176l0 128 33.3 0 38.4-128L320 176z"/></svg>

<svg xmlns="http://www.w3.org/2000/svg" viewBox="0 0 448 512"><!--! Font Awesome Pro 6.4.0 by @fontawesome - https://fontawesome.com License - https://fontawesome.com/license (Commercial License) Copyright 2023 Fonticons, Inc. --><path d="M160 24c0-13.3 10.7-24 24-24h40 40c13.3 0 24 10.7 24 24s-10.7 24-24 24H248V96h40c17.7 0 32 14.3 32 32h93.2c21.4 0 36.8 20.7 30.6 41.2L402.7 306.5c7.9 3.9 13.3 12.1 13.3 21.5c0 13.3-10.7 24-24 24H368V488c0 13.3-10.7 24-24 24s-24-10.7-24-24V352l-192 0V488c0 13.3-10.7 24-24 24s-24-10.7-24-24V352H56c-13.3 0-24-10.7-24-24c0-9.4 5.4-17.6 13.3-21.5L4.1 169.2C-2.1 148.7 13.3 128 34.8 128H128c0-17.7 14.3-32 32-32h40V48H184c-13.3 0-24-10.7-24-24zM94.7 304H128V176H56.3L94.7 304zm81.3 0l96 0V176H176V304zM320 176V304h33.3l38.4-128H320z"/></svg>
